!! 00000] TT[00
!! NN
!!!OTL: Xi kan fengshou jing
!!!ARE: Asia, China,ÿJiangxi, Yongxin
!! Ethnic Group: Han
!! IV, 195
!!!SCT: C0399
!!!YEM: Copyright 1995, estate of Helmut Schaffrath.
**kern
*ICvox
*Ivox
*M2/4
*k[f#]
*G:
{8dd
8a
8dd
8ee
=1
16a
16b
16a
16g
4a}
=2
{8dd
8a
8dd
8ee
=3
16a
16b
16a
16g
4a}
=4
{8d
8dd
8dd
8dd
=5
8g
8dd
4a}
=6
{8g
8b
8a
8g
=7
8g
8d
4e}
==
!!!AGN: Wuge, Dengge. Xin minge
!! Wenig Glissandi, Verzierungen. Nachspiel weggelassen.
!!!ONB: ESAC (Essen Associative Code) Database: CHINA
!!!AMT: simple duple
!!!AIN: vox
!!!EED: Helmut Schaffrath
!!!EEV: 1.0
*-
